picto/bicycle-park-right.svg

<svg class="color-immutable" width="24" height="24" viewBox="0 0 24 24" fill="none" xmlns="http://www.w3.org/2000/svg"><g clip-path="url(#a)"><path d="M0 22.5v-21C0 .675.675 0 1.5 0h21c.825 0 1.5.675 1.5 1.5v21c0 .825-.675 1.5-1.5 1.5h-21C.675 24 0 23.325 0 22.5Z" fill="#2D327D"/><path d="M3 3h1.816c.306 0 .546.019.722.057.175.038.334.105.476.202.392.263.588.659.588 1.188 0 .47-.162.839-.486 1.108a1.297 1.297 0 0 1-.472.248c-.177.05-.394.075-.653.075h-1.01V7.5H3V3Zm.982.831v1.274h.877c.261 0 .448-.046.563-.139.142-.115.212-.284.212-.508 0-.226-.082-.394-.246-.505-.119-.081-.312-.122-.581-.122h-.825ZM10.015 11.795l-1.811.633a.374.374 0 0 1-.435-.145l-.406-.603a.3.3 0 0 1 .249-.468h2.304a.3.3 0 0 1 .099.583ZM16.351 11.812h-2.626v-.6h2.626a.3.3 0 0 1 0 .6ZM16.35 12.787h-.375a.3.3 0 0 1 0-.6h.375a.3.3 0 0 1 0 .6ZM6.675 13.649a3.676 3.676 0 0 0 0 7.351 3.674 3.674 0 0 0 3.659-3.338h.782a.975.975 0 1 0 1.649-1.014l1.966-2.923.403.648a3.676 3.676 0 1 0 .511-.317l-.72-1.156h-5.85l-.72 1.156a3.673 3.673 0 0 0-1.68-.407Zm7.575 3.676c0-.956.445-1.858 1.203-2.44l1.617 2.598a.3.3 0 0 0 .554-.158.314.314 0 0 0-.044-.159l-1.617-2.599a3.078 3.078 0 0 1 4.438 2.757 3.075 3.075 0 0 1-6.151.001Zm-2.518-1.013L9.84 13.5h4.32l-1.891 2.812a.967.967 0 0 0-.537 0Zm-1.391.75a3.68 3.68 0 0 0-1.476-2.69l.404-.648 1.965 2.923a.96.96 0 0 0-.19.415h-.703Zm-1.794-2.177a3.078 3.078 0 0 1 1.192 2.177H7.192l1.355-2.177ZM6.675 20.4a3.076 3.076 0 1 1 1.363-5.832l-1.343 2.158-.019-.001a.6.6 0 1 0 .496.938h2.561A3.078 3.078 0 0 1 6.675 20.4Z" fill="#fff"/></g><defs><clipPath id="a"><path fill="#fff" d="M0 0h24v24H0z"/></clipPath></defs></svg>

<svg class="color-immutable" width="24" height="24" viewBox="0 0 24 24" fill="none" xmlns="http://www.w3.org/2000/svg"><path d="M0 22.5V1.5C0 0.675 0.675 0 1.5 0H22.5C23.325 0 24 0.675 24 1.5V22.5C24 23.325 23.325 24 22.5 24H1.5C0.675 24 0 23.325 0 22.5Z" fill="#2D327D"/><path d="M3 3H4.816C5.122 3 5.362 3.019 5.538 3.057C5.713 3.095 5.872 3.162 6.014 3.259C6.406 3.522 6.602 3.918 6.602 4.447C6.602 4.917 6.44 5.286 6.116 5.555C5.977 5.67 5.82 5.752 5.644 5.803C5.467 5.853 5.25 5.878 4.991 5.878H3.981V7.5H3V3ZM3.982 3.831V5.105H4.859C5.12 5.105 5.307 5.059 5.422 4.966C5.564 4.851 5.634 4.682 5.634 4.458C5.634 4.232 5.552 4.064 5.388 3.953C5.269 3.872 5.076 3.831 4.807 3.831H3.982Z" fill="white"/><path d="M10.015 11.795L8.20399 12.428C8.16499 12.443 8.12199 12.449 8.07999 12.449C7.95499 12.449 7.83899 12.387 7.76899 12.283L7.36299 11.68C7.32999 11.63 7.31299 11.571 7.31299 11.513C7.31299 11.347 7.44699 11.212 7.61199 11.212H9.91599C10.082 11.212 10.217 11.347 10.217 11.513C10.217 11.64 10.135 11.754 10.015 11.795Z" fill="white"/><path d="M16.351 11.812H13.725V11.212H16.351C16.516 11.212 16.65 11.346 16.65 11.512C16.65 11.678 16.516 11.812 16.351 11.812Z" fill="white"/><path d="M16.35 12.787H15.975C15.81 12.787 15.675 12.653 15.675 12.487C15.675 12.321 15.81 12.187 15.975 12.187H16.35C16.515 12.187 16.649 12.321 16.649 12.487C16.65 12.653 16.516 12.787 16.35 12.787Z" fill="white"/><path d="M6.675 13.649C4.646 13.649 3 15.295 3 17.325C3 19.353 4.646 21 6.675 21C8.574 21 10.161 19.553 10.334 17.662H11.116C11.277 18.005 11.621 18.225 12 18.225C12.537 18.225 12.974 17.788 12.974 17.25C12.974 17.031 12.901 16.819 12.765 16.648L14.731 13.725L15.134 14.373C14.199 15.068 13.649 16.161 13.649 17.325C13.649 19.353 15.295 21 17.323 21C19.354 21 21 19.353 21 17.325C21 15.295 19.354 13.649 17.325 13.649C16.741 13.649 16.165 13.788 15.645 14.056L14.925 12.9H9.075L8.355 14.056C7.836 13.789 7.26 13.649 6.675 13.649ZM14.25 17.325C14.25 16.369 14.695 15.467 15.453 14.885L17.07 17.483C17.125 17.571 17.22 17.625 17.324 17.625C17.49 17.625 17.624 17.49 17.624 17.325C17.624 17.268 17.608 17.214 17.58 17.166L15.963 14.567C16.387 14.358 16.852 14.249 17.325 14.249C19.022 14.249 20.401 15.626 20.401 17.324C20.401 19.021 19.023 20.399 17.325 20.399C15.628 20.4 14.25 19.022 14.25 17.325ZM11.732 16.312L9.84 13.5H14.16L12.269 16.312C12.182 16.287 12.092 16.275 12.002 16.275C11.909 16.275 11.819 16.287 11.732 16.312ZM10.341 17.062C10.264 15.993 9.725 15.011 8.865 14.372L9.269 13.724L11.234 16.647C11.138 16.768 11.073 16.911 11.044 17.062H10.341ZM8.547 14.885C9.232 15.411 9.665 16.201 9.739 17.062H7.192L8.547 14.885ZM6.675 20.4C4.978 20.4 3.601 19.022 3.601 17.325C3.601 15.627 4.978 14.25 6.675 14.25C7.148 14.25 7.614 14.359 8.038 14.568L6.695 16.726C6.69 16.725 6.682 16.725 6.676 16.725C6.345 16.725 6.077 16.994 6.077 17.326C6.077 17.656 6.345 17.926 6.676 17.926C6.875 17.926 7.06 17.828 7.172 17.663H9.733C9.56 19.22 8.243 20.4 6.675 20.4Z" fill="white"/></svg>
